X: 11052
T: Dublin, The
R: reel
M: 4/4
K: Dmajor
|:dFFF dFeF|dFFF AFEF|d2dc dfed|cABG A2Bc:|
|:eAAA eAfA|eAAA BAFA|e2ed egfe|d2dA BAFA:|
|:d3c dAFA|dcdA FDFA|d2dc dfed|cABc d3d:|

